myArt/home/cassandra.svg

<?xml version="1.0" standalone="no"?>
<!DOCTYPE svg PUBLIC "-//W3C//DTD SVG 20010904//EN"
 "http://www.w3.org/TR/2001/REC-SVG-20010904/DTD/svg10.dtd">
<svg version="1.0" xmlns="http://www.w3.org/2000/svg"
 width="288.000000pt" height="288.000000pt" viewBox="0 0 288.000000 288.000000"
 preserveAspectRatio="xMidYMid meet">

<g transform="translate(0.000000,288.000000) scale(0.100000,-0.100000)"
fill="#000000" stroke="none">
<path d="M1991 2265 c-57 -56 -97 -83 -107 -72 -4 3 1 24 9 46 l16 39 -50 -34
c-48 -32 -89 -44 -89 -26 0 5 7 23 16 41 21 42 11 51 -24 19 -56 -52 -129 -67
-139 -27 -4 14 -10 18 -22 13 -9 -4 -30 -9 -47 -11 -26 -4 -32 -1 -37 18 l-6
24 -34 -33 c-40 -39 -47 -40 -47 -5 l0 27 -33 -32 c-42 -40 -67 -42 -67 -4
l-1 27 -22 -27 c-27 -33 -43 -35 -52 -8 -9 28 -20 25 -42 -11 -16 -28 -29 -34
-128 -60 -293 -76 -564 -225 -837 -462 -110 -95 -175 -167 -151 -167 11 0 108
59 163 99 23 17 47 31 52 31 5 0 40 26 79 58 38 33 86 67 106 78 46 23 59 34
67 59 3 11 27 34 53 52 50 34 229 117 276 128 29 8 36 -5 13 -25 -20 -16 -13
-213 8 -265 13 -30 14 -44 3 -83 -6 -26 -15 -50 -19 -53 -5 -3 8 -24 28 -47
30 -36 38 -40 55 -31 16 8 28 6 55 -10 22 -14 53 -21 83 -21 29 0 70 -9 102
-24 85 -37 127 -41 208 -16 113 33 198 73 193 89 -3 9 0 12 10 8 19 -7 100 74
123 123 8 19 25 53 37 75 24 47 41 163 32 220 -7 40 -33 86 -69 117 -20 17
-20 17 3 18 63 1 315 -81 433 -140 47 -24 57 -34 67 -68 21 -71 16 -134 -17
-178 -108 -148 -301 -271 -521 -330 -122 -33 -213 -46 -370 -51 -140 -4 -183
-2 -280 16 -160 28 -308 67 -325 85 -20 19 -56 30 -64 20 -8 -12 -504 -12
-558 0 -68 14 -56 -15 19 -49 59 -27 73 -28 268 -36 113 -4 206 -8 208 -8 11
-4 -5 -37 -38 -77 -64 -78 -50 -98 29 -40 55 40 144 86 166 86 18 0 14 -22
-11 -72 -14 -28 -19 -68 -8 -68 3 0 15 12 27 26 51 65 166 107 195 71 13 -15
-17 -89 -50 -124 -12 -13 -18 -26 -15 -30 11 -10 49 11 101 56 26 23 56 41 67
41 16 0 19 -7 19 -55 0 -30 4 -55 8 -55 4 0 17 16 29 36 35 62 34 22 -4 -82
-66 -185 -56 -204 30 -51 76 135 128 211 149 215 21 4 53 -56 72 -136 l14 -57
1 97 c1 95 2 98 25 104 37 9 59 1 73 -26 16 -31 17 -156 2 -234 -11 -62 -6
-97 12 -79 17 17 59 203 59 261 l0 53 35 -28 c44 -35 93 -131 101 -198 8 -76
13 -95 26 -95 19 0 0 116 -37 226 -19 56 -35 107 -35 113 0 26 32 7 80 -46 39
-44 50 -52 45 -33 -4 14 -9 51 -12 83 -5 56 -5 57 21 57 38 0 87 -23 112 -52
28 -33 60 -119 69 -185 9 -66 25 -79 25 -21 0 52 -20 130 -56 221 -53 131 14
113 147 -39 45 -52 84 -94 86 -94 2 0 -26 56 -62 125 -36 69 -65 134 -65 145
0 29 29 25 70 -10 42 -37 69 -41 46 -8 -9 12 -16 28 -16 35 0 31 35 7 124 -84
52 -54 98 -94 102 -90 4 4 -2 17 -13 30 -46 52 -133 187 -133 207 0 23 -1 23
68 4 34 -10 27 11 -18 52 -22 21 -40 42 -40 47 0 16 101 -2 159 -29 30 -13 56
-22 59 -20 2 3 -8 20 -23 38 -16 18 -23 34 -16 36 13 4 110 -50 151 -85 17
-13 35 -23 42 -21 8 3 7 8 -3 16 -8 7 -42 35 -76 63 -34 29 -70 63 -79 77
l-16 25 56 -6 c67 -7 79 5 34 33 -18 11 -33 25 -34 32 0 7 -2 20 -2 30 -1 9
-16 25 -32 35 l-31 20 74 21 c91 27 180 84 247 160 56 64 69 104 18 55 -50
-47 -129 -93 -160 -93 -35 0 -35 10 -2 41 31 29 106 140 100 147 -5 4 -96 -58
-123 -85 -28 -26 -122 -64 -152 -61 l-32 3 42 55 c23 30 57 87 75 125 l34 70
-42 -50 c-78 -91 -141 -150 -145 -138 -3 7 4 25 15 40 29 42 64 114 58 120 -3
3 -35 -25 -72 -63 -37 -38 -69 -64 -71 -57 -2 6 10 37 28 68 17 31 29 58 26
62 -3 3 -44 -34 -92 -81 -77 -77 -125 -109 -142 -93 -3 4 15 39 41 78 25 40
46 77 46 82 0 6 -31 -20 -69 -56 -82 -79 -136 -93 -100 -25 14 26 6 33 -21 18
-33 -18 -36 -5 -8 37 55 85 60 93 52 92 -5 0 -34 -24 -63 -54z"/>
<path d="M2047 936 c-8 -8 -18 -39 -21 -69 l-7 -55 -55 -4 c-33 -3 -66 -13
-82 -24 -67 -49 -97 -193 -51 -243 18 -19 29 -22 61 -18 22 3 50 15 62 26 28
26 36 26 36 2 0 -26 14 -34 50 -26 27 6 30 11 30 44 0 20 11 105 25 189 32
195 32 192 -4 192 -16 0 -36 -7 -44 -14z"/>
<path d="M272 793 c-127 -62 -133 -273 -7 -273 47 0 101 23 115 50 16 30 -2
50 -30 32 -11 -6 -33 -12 -50 -12 -35 0 -46 28 -36 86 10 50 38 74 85 74 32 0
41 4 46 21 5 14 2 25 -6 30 -22 14 -81 10 -117 -8z"/>
<path d="M546 796 c-57 -21 -95 -63 -112 -124 -18 -59 -13 -105 13 -134 22
-25 58 -23 110 7 42 25 43 25 43 5 0 -24 21 -34 54 -26 21 5 24 14 40 137 10
72 15 133 13 136 -13 13 -125 12 -161 -1z"/>
<path d="M815 801 c-46 -19 -73 -80 -52 -117 7 -12 27 -34 45 -49 17 -15 32
-31 32 -36 0 -5 -25 -9 -55 -9 -52 0 -55 -1 -55 -25 0 -29 30 -45 87 -45 27 0
43 8 69 34 47 47 45 79 -6 126 -51 47 -52 68 -3 72 28 2 39 8 41 22 2 10 -2
22 -10 27 -16 11 -66 10 -93 0z"/>
<path d="M1020 793 c-65 -45 -68 -94 -10 -149 22 -21 40 -42 40 -46 0 -4 -22
-8 -49 -8 -55 0 -67 -10 -51 -40 22 -41 113 -38 156 5 37 37 33 85 -11 126
-46 44 -47 69 -1 69 23 0 36 6 40 17 16 39 -68 58 -114 26z"/>
<path d="M1293 800 c-68 -21 -132 -132 -119 -208 11 -73 64 -92 130 -47 20 14
39 25 41 25 3 0 5 -11 5 -25 0 -21 5 -25 28 -25 15 0 32 4 38 8 14 10 45 254
33 266 -12 14 -118 17 -156 6z"/>
<path d="M1548 803 c-20 -5 -21 -7 -44 -156 -19 -121 -14 -138 32 -121 22 7
31 23 54 93 25 78 54 121 82 121 6 0 7 -40 3 -110 l-8 -110 31 0 c41 0 48 15
63 137 11 92 10 105 -5 127 -21 33 -61 34 -109 2 -37 -26 -47 -24 -47 6 0 18
-15 21 -52 11z"/>
<path d="M2185 801 c-17 -7 -22 -26 -37 -137 -9 -71 -13 -133 -8 -138 5 -4 21
-4 36 1 24 8 33 21 54 85 30 89 44 108 76 108 16 0 28 10 39 31 29 55 1 76
-57 42 -28 -17 -30 -17 -42 0 -14 18 -29 20 -61 8z"/>
<path d="M2476 800 c-41 -13 -93 -66 -112 -117 -19 -48 -15 -123 7 -149 17
-21 82 -13 120 15 36 27 39 26 39 -4 0 -21 5 -25 29 -25 17 0 33 6 38 13 9 14
32 173 32 228 1 30 -3 38 -21 43 -32 8 -97 6 -132 -4z"/>
</g>
</svg>

<?xml version="1.0" standalone="no"?>
<!DOCTYPE svg PUBLIC "-//W3C//DTD SVG 1.0//EN" "http://www.w3.org/TR/2001/REC-SVG-20010904/DTD/svg10.dtd">
<svg xmlns="http://www.w3.org/2000/svg" xmlns:xlink="http://www.w3.org/1999/xlink" id="body_1" width="92" height="92">

<g transform="matrix(0.31944448 0 0 0.31944448 0 0)">
	<g transform="matrix(0.1 0 -0 -0.1 0 288)">
        <path d="M1991 2265C 1934 2209 1894 2182 1884 2193C 1880 2196 1885 2217 1893 2239L1893 2239L1909 2278L1859 2244C 1811 2212 1770 2200 1770 2218C 1770 2223 1777 2241 1786 2259C 1807 2301 1797 2310 1762 2278C 1706 2226 1633 2211 1623 2251C 1619 2265 1613 2269 1601 2264C 1592 2260 1571 2255 1554 2253C 1528 2249 1522 2252 1517 2271L1517 2271L1511 2295L1477 2262C 1437 2223 1430 2222 1430 2257L1430 2257L1430 2284L1397 2252C 1355 2212 1330 2210 1330 2248L1330 2248L1329 2275L1307 2248C 1280 2215 1264 2213 1255 2240C 1246 2268 1235 2265 1213 2229C 1197 2201 1184 2195 1085 2169C 792 2093 521 1944 248 1707C 138 1612 73 1540 97 1540C 108 1540 205 1599 260 1639C 283 1656 307 1670 312 1670C 317 1670 352 1696 391 1728C 429 1761 477 1795 497 1806C 543 1829 556 1840 564 1865C 567 1876 591 1899 617 1917C 667 1951 846 2034 893 2045C 922 2053 929 2040 906 2020C 886 2004 893 1807 914 1755C 927 1725 928 1711 917 1672C 911 1646 902 1622 898 1619C 893 1616 906 1595 926 1572C 956 1536 964 1532 981 1541C 997 1549 1009 1547 1036 1531C 1058 1517 1089 1510 1119 1510C 1148 1510 1189 1501 1221 1486C 1306 1449 1348 1445 1429 1470C 1542 1503 1627 1543 1622 1559C 1619 1568 1622 1571 1632 1567C 1651 1560 1732 1641 1755 1690C 1763 1709 1780 1743 1792 1765C 1816 1812 1833 1928 1824 1985C 1817 2025 1791 2071 1755 2102C 1735 2119 1735 2119 1758 2120C 1821 2121 2073 2039 2191 1980C 2238 1956 2248 1946 2258 1912C 2279 1841 2274 1778 2241 1734C 2133 1586 1940 1463 1720 1404C 1598 1371 1507 1358 1350 1353C 1210 1349 1167 1351 1070 1369C 910 1397 762 1436 745 1454C 725 1473 689 1484 681 1474C 673 1462 177 1462 123 1474C 55 1488 67 1459 142 1425C 201 1398 215 1397 410 1389C 523 1385 616 1381 618 1381C 629 1377 613 1344 580 1304C 516 1226 530 1206 609 1264C 664 1304 753 1350 775 1350C 793 1350 789 1328 764 1278C 750 1250 745 1210 756 1210C 759 1210 771 1222 783 1236C 834 1301 949 1343 978 1307C 991 1292 961 1218 928 1183C 916 1170 910 1157 913 1153C 924 1143 962 1164 1014 1209C 1040 1232 1070 1250 1081 1250C 1097 1250 1100 1243 1100 1195C 1100 1165 1104 1140 1108 1140C 1112 1140 1125 1156 1137 1176C 1172 1238 1171 1198 1133 1094C 1067 909 1077 890 1163 1043C 1239 1178 1291 1254 1312 1258C 1333 1262 1365 1202 1384 1122L1384 1122L1398 1065L1399 1162C 1400 1257 1401 1260 1424 1266C 1461 1275 1483 1267 1497 1240C 1513 1209 1514 1084 1499 1006C 1488 944 1493 909 1511 927C 1528 944 1570 1130 1570 1188L1570 1188L1570 1241L1605 1213C 1649 1178 1698 1082 1706 1015C 1714 939 1719 920 1732 920C 1751 920 1732 1036 1695 1146C 1676 1202 1660 1253 1660 1259C 1660 1285 1692 1266 1740 1213C 1779 1169 1790 1161 1785 1180C 1781 1194 1776 1231 1773 1263C 1768 1319 1768 1320 1794 1320C 1832 1320 1881 1297 1906 1268C 1934 1235 1966 1149 1975 1083C 1984 1017 2000 1004 2000 1062C 2000 1114 1980 1192 1944 1283C 1891 1414 1958 1396 2091 1244C 2136 1192 2175 1150 2177 1150C 2179 1150 2151 1206 2115 1275C 2079 1344 2050 1409 2050 1420C 2050 1449 2079 1445 2120 1410C 2162 1373 2189 1369 2166 1402C 2157 1414 2150 1430 2150 1437C 2150 1468 2185 1444 2274 1353C 2326 1299 2372 1259 2376 1263C 2380 1267 2374 1280 2363 1293C 2317 1345 2230 1480 2230 1500C 2230 1523 2229 1523 2298 1504C 2332 1494 2325 1515 2280 1556C 2258 1577 2240 1598 2240 1603C 2240 1619 2341 1601 2399 1574C 2429 1561 2455 1552 2458 1554C 2460 1557 2450 1574 2435 1592C 2419 1610 2412 1626 2419 1628C 2432 1632 2529 1578 2570 1543C 2587 1530 2605 1520 2612 1522C 2620 1525 2619 1530 2609 1538C 2601 1545 2567 1573 2533 1601C 2499 1630 2463 1664 2454 1678L2454 1678L2438 1703L2494 1697C 2561 1690 2573 1702 2528 1730C 2510 1741 2495 1755 2494 1762C 2494 1769 2492 1782 2492 1792C 2491 1801 2476 1817 2460 1827L2460 1827L2429 1847L2503 1868C 2594 1895 2683 1952 2750 2028C 2806 2092 2819 2132 2768 2083C 2718 2036 2639 1990 2608 1990C 2573 1990 2573 2000 2606 2031C 2637 2060 2712 2171 2706 2178C 2701 2182 2610 2120 2583 2093C 2555 2067 2461 2029 2431 2032L2431 2032L2399 2035L2441 2090C 2464 2120 2498 2177 2516 2215L2516 2215L2550 2285L2508 2235C 2430 2144 2367 2085 2363 2097C 2360 2104 2367 2122 2378 2137C 2407 2179 2442 2251 2436 2257C 2433 2260 2401 2232 2364 2194C 2327 2156 2295 2130 2293 2137C 2291 2143 2303 2174 2321 2205C 2338 2236 2350 2263 2347 2267C 2344 2270 2303 2233 2255 2186C 2178 2109 2130 2077 2113 2093C 2110 2097 2128 2132 2154 2171C 2179 2211 2200 2248 2200 2253C 2200 2259 2169 2233 2131 2197C 2049 2118 1995 2104 2031 2172C 2045 2198 2037 2205 2010 2190C 1977 2172 1974 2185 2002 2227C 2057 2312 2062 2320 2054 2319C 2049 2319 2020 2295 1991 2265z" stroke="none" fill="#000000" fill-rule="nonzero" />
        <path d="M2047 936C 2039 928 2029 897 2026 867L2026 867L2019 812L1964 808C 1931 805 1898 795 1882 784C 1815 735 1785 591 1831 541C 1849 522 1860 519 1892 523C 1914 526 1942 538 1954 549C 1982 575 1990 575 1990 551C 1990 525 2004 517 2040 525C 2067 531 2070 536 2070 569C 2070 589 2081 674 2095 758C 2127 953 2127 950 2091 950C 2075 950 2055 943 2047 936z" stroke="none" fill="#000000" fill-rule="nonzero" />
        <path d="M272 793C 145 731 139 520 265 520C 312 520 366 543 380 570C 396 600 378 620 350 602C 339 596 317 590 300 590C 265 590 254 618 264 676C 274 726 302 750 349 750C 381 750 390 754 395 771C 400 785 397 796 389 801C 367 815 308 811 272 793z" stroke="none" fill="#000000" fill-rule="nonzero" />
        <path d="M546 796C 489 775 451 733 434 672C 416 613 421 567 447 538C 469 513 505 515 557 545C 599 570 600 570 600 550C 600 526 621 516 654 524C 675 529 678 538 694 661C 704 733 709 794 707 797C 694 810 582 809 546 796z" stroke="none" fill="#000000" fill-rule="nonzero" />
        <path d="M815 801C 769 782 742 721 763 684C 770 672 790 650 808 635C 825 620 840 604 840 599C 840 594 815 590 785 590C 733 590 730 589 730 565C 730 536 760 520 817 520C 844 520 860 528 886 554C 933 601 931 633 880 680C 829 727 828 748 877 752C 905 754 916 760 918 774C 920 784 916 796 908 801C 892 812 842 811 815 801z" stroke="none" fill="#000000" fill-rule="nonzero" />
        <path d="M1020 793C 955 748 952 699 1010 644C 1032 623 1050 602 1050 598C 1050 594 1028 590 1001 590C 946 590 934 580 950 550C 972 509 1063 512 1106 555C 1143 592 1139 640 1095 681C 1049 725 1048 750 1094 750C 1117 750 1130 756 1134 767C 1150 806 1066 825 1020 793z" stroke="none" fill="#000000" fill-rule="nonzero" />
        <path d="M1293 800C 1225 779 1161 668 1174 592C 1185 519 1238 500 1304 545C 1324 559 1343 570 1345 570C 1348 570 1350 559 1350 545C 1350 524 1355 520 1378 520C 1393 520 1410 524 1416 528C 1430 538 1461 782 1449 794C 1437 808 1331 811 1293 800z" stroke="none" fill="#000000" fill-rule="nonzero" />
        <path d="M1548 803C 1528 798 1527 796 1504 647C 1485 526 1490 509 1536 526C 1558 533 1567 549 1590 619C 1615 697 1644 740 1672 740C 1678 740 1679 700 1675 630L1675 630L1667 520L1698 520C 1739 520 1746 535 1761 657C 1772 749 1771 762 1756 784C 1735 817 1695 818 1647 786C 1610 760 1600 762 1600 792C 1600 810 1585 813 1548 803z" stroke="none" fill="#000000" fill-rule="nonzero" />
        <path d="M2185 801C 2168 794 2163 775 2148 664C 2139 593 2135 531 2140 526C 2145 522 2161 522 2176 527C 2200 535 2209 548 2230 612C 2260 701 2274 720 2306 720C 2322 720 2334 730 2345 751C 2374 806 2346 827 2288 793C 2260 776 2258 776 2246 793C 2232 811 2217 813 2185 801z" stroke="none" fill="#000000" fill-rule="nonzero" />
        <path d="M2476 800C 2435 787 2383 734 2364 683C 2345 635 2349 560 2371 534C 2388 513 2453 521 2491 549C 2527 576 2530 575 2530 545C 2530 524 2535 520 2559 520C 2576 520 2592 526 2597 533C 2606 547 2629 706 2629 761C 2630 791 2626 799 2608 804C 2576 812 2511 810 2476 800z" stroke="none" fill="#000000" fill-rule="nonzero" />
	</g>
</g>
</svg>
